raw-svg/sign-in.svg

<svg viewBox="0 0 24 24" xmlns="http://www.w3.org/2000/svg"><path d="m18 20.75h-3a.75.75 0 0 1 0-1.5h3a1.16 1.16 0 0 0 1.25-1v-12.47a1.16 1.16 0 0 0 -1.25-1h-3a.75.75 0 0 1 0-1.5h3a2.64 2.64 0 0 1 2.75 2.53v12.41a2.64 2.64 0 0 1 -2.75 2.53z"/><path d="m11 16.75a.74.74 0 0 1 -.53-.22.75.75 0 0 1 0-1.06l3.47-3.47-3.47-3.47a.75.75 0 0 1 1.06-1.06l4 4a.75.75 0 0 1 0 1.06l-4 4a.74.74 0 0 1 -.53.22z"/><path d="m15 12.75h-11a.75.75 0 0 1 0-1.5h11a.75.75 0 0 1 0 1.5z"/></svg>

<svg xmlns="http://www.w3.org/2000/svg" viewBox="0 0 24 24"><g id="sign-in"><path d="M18,20.75H15a.75.75,0,0,1,0-1.5h3a1.16,1.16,0,0,0,1.25-1V5.78a1.16,1.16,0,0,0-1.25-1H15a.75.75,0,0,1,0-1.5h3a2.64,2.64,0,0,1,2.75,2.53V18.22A2.64,2.64,0,0,1,18,20.75Z"/><path d="M11,16.75a.74.74,0,0,1-.53-.22.75.75,0,0,1,0-1.06L13.94,12,10.47,8.53a.75.75,0,0,1,1.06-1.06l4,4a.75.75,0,0,1,0,1.06l-4,4A.74.74,0,0,1,11,16.75Z"/><path d="M15,12.75H4a.75.75,0,0,1,0-1.5H15a.75.75,0,0,1,0,1.5Z"/></g></svg>
